dist/img/icons/Consultation.svg

<svg width="40" height="40" viewBox="0 0 40 40" fill="none" xmlns="http://www.w3.org/2000/svg">
<rect y="16.6666" width="23.3333" height="23.3333" fill="#7595FD"/>
<path d="M18.3333 9.99995H23.3333L28.8167 4.49996C28.9716 4.34374 29.1559 4.21975 29.359 4.13514C29.5621 4.05052 29.78 4.00696 30 4.00696C30.22 4.00696 30.4379 4.05052 30.641 4.13514C30.8441 4.21975 31.0284 4.34374 31.1833 4.49996L35.4833 8.81662C35.7938 9.12889 35.968 9.55131 35.968 9.99162C35.968 10.4319 35.7938 10.8544 35.4833 11.1666L31.6667 15H18.3333V18.3333C18.3333 18.7753 18.1577 19.1992 17.8452 19.5118C17.5326 19.8244 17.1087 20 16.6667 20C16.2246 20 15.8007 19.8244 15.4882 19.5118C15.1756 19.1992 15 18.7753 15 18.3333V13.3333C15 12.4492 15.3512 11.6014 15.9763 10.9763C16.6014 10.3511 17.4493 9.99995 18.3333 9.99995ZM8.33333 18.3333V25L4.51667 28.8166C4.20625 29.1289 4.03201 29.5513 4.03201 29.9916C4.03201 30.4319 4.20625 30.8544 4.51667 31.1666L8.81667 35.4833C8.97161 35.6395 9.15594 35.7635 9.35904 35.8481C9.56214 35.9327 9.77998 35.9763 10 35.9763C10.22 35.9763 10.4379 35.9327 10.641 35.8481C10.8441 35.7635 11.0284 35.6395 11.1833 35.4833L18.3333 28.3333H25C25.442 28.3333 25.866 28.1577 26.1785 27.8451C26.4911 27.5326 26.6667 27.1086 26.6667 26.6666V25H28.3333C28.7754 25 29.1993 24.8244 29.5118 24.5118C29.8244 24.1992 30 23.7753 30 23.3333V21.6666H31.6667C32.1087 21.6666 32.5326 21.491 32.8452 21.1785C33.1577 20.8659 33.3333 20.442 33.3333 20V18.3333H21.6667V20C21.6667 20.884 21.3155 21.7319 20.6904 22.357C20.0652 22.9821 19.2174 23.3333 18.3333 23.3333H15C14.1159 23.3333 13.2681 22.9821 12.643 22.357C12.0179 21.7319 11.6667 20.884 11.6667 20V15L8.33333 18.3333Z" fill="#292E3D"/>
</svg>

<svg width="40" height="40" fill="none" xmlns="http://www.w3.org/2000/svg"><path fill="#7595FD" d="M0 16.667h23.333V40H0z"/><path d="M18.333 10h5l5.484-5.5a1.666 1.666 0 0 1 2.366 0l4.3 4.317a1.666 1.666 0 0 1 0 2.35L31.667 15H18.333v3.333a1.667 1.667 0 0 1-3.333 0v-5A3.333 3.333 0 0 1 18.333 10Zm-10 8.333V25l-3.816 3.817a1.667 1.667 0 0 0 0 2.35l4.3 4.316a1.667 1.667 0 0 0 2.366 0l7.15-7.15H25a1.666 1.666 0 0 0 1.667-1.666V25h1.666A1.666 1.666 0 0 0 30 23.333v-1.666h1.667A1.667 1.667 0 0 0 33.333 20v-1.667H21.667V20a3.333 3.333 0 0 1-3.334 3.333H15A3.333 3.333 0 0 1 11.667 20v-5l-3.334 3.333Z" fill="#292E3D"/></svg>
